X:1
T: Honour the Piper
C:
R:Reel
Q: 232
K:A
M:4/4
L:1/8
|:ed|c2 A2 Bc dB|c2 A2 B=G EG|c2 A2 Bc dB|=gd Bd eA Ae|
c2 A2 Bc dB|c2 A2 B=G EG|ce fg ab af|ea be' c'a ag|
ag fe dc BA|ce fa b2 bc'|d'2 d'b c'a ec'|ba gf ge e2|
fd Gf ec Ee|dB Ed c3A|Bc de fe fa|ge gb a2:|
